X: 24427
T: Low Tide At Merryman's, The
R: slip jig
M: 9/8
K: Gminor
|:"Fsus" F3 F2 D (4:4:4D/4E/4D/4C/4 z B,|F3 F2 D DEB,|F3 F2 D DEB|"D#" ABc BAB GAG:|
|:"Fsus" F2 A F2 A (4:4:4A/4B/4A/4F/4 z E|F A2 F A2 BAG|"D#" F2 A F2 A EAB|"A#" AGF GFE FAE:|
"Fsus" C3 C2 E (4:4:4D/4E/4D/4C/4 z B,|C3 C2 B, CED|C3 C2 E CDF|"A#" G F2 DB, z CDB,|
"D#" C3 C2 E (4:4:4D/4E/4D/4C/4 z B,|C3 C2 B, EDB,|"Fsus" C3 C2 E CDF|"D#" GFB FGE GDD/E/||

